X: 7784
T:Schottische fr France
R:Schottische
O:France
M:4/4
K:D
A|\
dcde d2Ad|edef e2A2|fefg f2ed|cdeg f2ec|\
dcde d2Ad|edef e2ag|
fefg f2ed|cdec d3::\
A|\
defg a2fd|Bcde A2dc|
Bcde fdef|gfed f2e2|\
defg a2fd|Bcde A2dc|Bcde fdef|gfec d3:|
